docs/images/icons/pinterest.svg

<?xml version="1.0" encoding="UTF-8"?>
<svg xmlns="http://www.w3.org/2000/svg" xmlns:xlink="http://www.w3.org/1999/xlink" width="12px" height="16px" viewBox="0 0 12 16" version="1.1">
<g id="surface1">
<path style=" stroke:none;fill-rule:nonzero;fill:rgb(0%,0%,0%);fill-opacity:1;" d="M 6.375 0.203125 C 3.167969 0.203125 0 2.339844 0 5.800781 C 0 8 1.238281 9.25 1.988281 9.25 C 2.296875 9.25 2.476562 8.386719 2.476562 8.144531 C 2.476562 7.851562 1.734375 7.234375 1.734375 6.023438 C 1.734375 3.511719 3.648438 1.730469 6.121094 1.730469 C 8.25 1.730469 9.824219 2.941406 9.824219 5.164062 C 9.824219 6.820312 9.160156 9.933594 7.003906 9.933594 C 6.226562 9.933594 5.558594 9.371094 5.558594 8.566406 C 5.558594 7.382812 6.382812 6.242188 6.382812 5.023438 C 6.382812 2.953125 3.449219 3.328125 3.449219 5.828125 C 3.449219 6.351562 3.515625 6.933594 3.75 7.414062 C 3.320312 9.269531 2.4375 12.035156 2.4375 13.945312 C 2.4375 14.539062 2.523438 15.117188 2.578125 15.710938 C 2.683594 15.828125 2.632812 15.816406 2.792969 15.757812 C 4.367188 13.601562 4.3125 13.179688 5.023438 10.355469 C 5.410156 11.085938 6.402344 11.480469 7.191406 11.480469 C 10.507812 11.480469 12 8.246094 12 5.332031 C 12 2.226562 9.320312 0.203125 6.375 0.203125 Z M 6.375 0.203125 "/>
</g>
</svg>

<svg xmlns="http://www.w3.org/2000/svg" width="12" height="16"><path d="M6.375.203C3.168.203 0 2.34 0 5.801 0 8 1.238 9.25 1.988 9.25c.309 0 .489-.863.489-1.105 0-.293-.743-.91-.743-2.122 0-2.511 1.914-4.293 4.387-4.293 2.129 0 3.703 1.211 3.703 3.434 0 1.656-.664 4.77-2.82 4.77-.777 0-1.445-.563-1.445-1.368 0-1.183.824-2.324.824-3.543 0-2.07-2.934-1.695-2.934.805 0 .524.067 1.106.301 1.586-.43 1.856-1.313 4.621-1.313 6.531 0 .594.086 1.172.141 1.766.106.117.055.105.215.047 1.574-2.156 1.52-2.578 2.23-5.403.387.73 1.38 1.125 2.168 1.125C10.508 11.48 12 8.246 12 5.332 12 2.227 9.32.203 6.375.203zm0 0" id="surface1"/></svg>
